X:5908053
T:Reel du p\`ere Bruneau
C:Lorenzo Picard
S:Lisa Ornstein & Denis Pepin, $2Danseries de la Belle Province.$0 Qu\'ebec, Lisa
S:Ornstein, 1984.
S:Rachel Aucoin & Sabin Jacques. Raz-de-Mar\'ee, $2Musique traditionelle qu\'eb\'ecoise.$0
S:Transcriptions by Claudine Arcand. Montr\'eal, Tidal Wave Music.
H:Composed in honor of Philippe Bruneau.
H:Melody from Lisa Ornstein and Denis Pepin. Chords from Rachel Aucoin.
H:There is also a version on the website based on a recording by Philippe Bruneau.
N:From NH Country Dance (URL below), along with many New England, Canadian & Swedish
N:tunes, and resources for abc notation and New England traditional music and dance.
%
N: Note #1: To preserve formatting (font, spacing, etc.), use the
N: file header at the URL below; just follow accompanying instructions.
%
N: Note #2: This abc code is optimized for use with abcm2ps, which is used by
N: EasyABC and other abc apps. To use abc2svg for display or printing look to see if there
N: is a file optimized for abc2svg. If not you may need to adjust the spacing in places.
%
Z:abc-transcription Peter Yarensky. I rely heavily on careful listening to the
Z:named sources aided by software to hear details. While not perfect, known
Z:substantial differences from other written sources receive careful attention.
Z:abc-copyright Peter Yarensky. You may reproduce this tune freely but
Z:please include the entire abc file including all the notes.
%%writefields HQSD
F:Tunes Home Page - https://fiddle-tunes.nhcountrydance.com/
F:abc Header & its Usage - https://fiddle-tunes.nhcountrydance.com/header-page/
M:C|
L:1/8
R:Reel
G:Reels ~ Canadian ~ Quebec
N: Tune Tags ~ Reel, Canadian, Quebec, Lorenzo Picard
K:D
Bc |\
"D" dAFA "G" GBAG    | "D"FAEA  D2FA    | "D" dfed "Bm" cBAG | "Em" FD"A7"EG "D" FDDA |
"D" dAFA "G" GBAG    | "D"FAEA  D2FA    | "D" dfed "Bm" cBAG |[1 "A7" FABc "D" dz  :|[2\
"A7" FABc "D" dz  AB ||
|: "D" (3ABA FA dFAd | "D" fAdf az zB    |"D" AAFA dFAd       | "G" c4 {dc}B4   |
"Em" E2>F2 Gz[FA]2   | "A7" c6   (3BcB   |"A7" A2  cB AGFE    | "D" D<ddd (3BcB A>B |
"D" (3ABA FA dFAd    | "D" fAdf az zB    |"D" AAFA dFAd       | "G" c4 {dc}B4   |
"Em" E2>F2 Gz[FA]2   | "A7" c6   (3BcB   |"A7" A2  cB AGFE    |1 "D" DDFA d2>B2 :|2 "D" DDFA d>d |]

